odm/etc/camera/filters_lut/dolby_preview_3dlut.cube
#Created by : Dolby Laboratories
#Copyright: (C) Copyright 2022 Dolby Laboratories
#is_rgb_input 1
#is_rgb_output 1
#input_offset 0.000000
#shape_order 1.000000
#format 6
# MaxLuma:900.00 MinLuma:0.00010 Eotf=Gamma
#LUT Size
LUT_3D_SIZE 5
#data domain
DOMAIN_MIN 0 0 0
DOMAIN_MAX 1.0 1.0 1.0
#LUT data points
0.0009775171 0.0009775171 0.0009775171
0.1524926722 0.0000000000 0.0087976540
0.3108504415 0.0000000000 0.0234604105
0.5434995294 0.0000000000 0.0498533733
0.9266862273 0.0000000000 0.1036168113
0.0000000000 0.1554252207 0.0000000000
0.1603128016 0.1573802531 0.0000000000
0.3391984403 0.1524926722 0.0000000000
0.5835776925 0.1221896410 0.0371456519
0.9628543258 0.0508308895 0.0977517143
0.0000000000 0.3304007947 0.0000000000
0.0928641260 0.3333333433 0.0000000000
0.3391984403 0.3333333433 0.0000000000
0.6177908182 0.3167155385 0.0000000000
1.0000000000 0.2492668629 0.0782013685
0.0000000000 0.5865102410 0.0000000000
0.0000000000 0.5884652734 0.0000000000
0.2424242496 0.5894427896 0.0000000000
0.5904203057 0.5806451440 0.0000000000
1.0000000000 0.5161290169 0.0000000000
0.0000000000 1.0000000000 0.0000000000
0.0000000000 1.0000000000 0.0000000000
0.0000000000 1.0000000000 0.0000000000
0.3304007947 1.0000000000 0.0000000000
1.0000000000 0.9912023544 0.0000000000
0.0000000000 0.0107526882 0.1143695042
0.1554252207 0.0000000000 0.1358748823
0.3216031194 0.0000000000 0.1515151560
0.5630498528 0.0000000000 0.1661779135
0.9540566802 0.0000000000 0.1827957034
0.0000000000 0.1564027369 0.1476050764
0.1573802531 0.1573802531 0.1534701884
0.3431085050 0.1524926722 0.1622678339
0.5982404947 0.1153470203 0.1710654944
0.9892473221 0.0000000000 0.1827957034
0.0000000000 0.3343108594 0.1642228812
0.0772238523 0.3362658918 0.1661779135
0.3391984403 0.3352883756 0.1691104621
0.6256109476 0.3186705709 0.1730205268
1.0000000000 0.2443792820 0.1798631549
0.0000000000 0.5933528543 0.1593352854
0.0000000000 0.5943304300 0.1583577693
0.2385141701 0.5943304300 0.1583577693
0.5933528543 0.5845552087 0.1583577693
1.0000000000 0.5180840492 0.1622678339
0.0000000000 1.0000000000 0.0772238523
0.0000000000 1.0000000000 0.0752688199
0.0000000000 1.0000000000 0.0703812316
0.3255131841 1.0000000000 0.0547409579
1.0000000000 0.9951124191 0.0420332365
0.0000000000 0.0263929628 0.2375366539
0.1505376399 0.0000000000 0.2639296055
0.3294232786 0.0000000000 0.2883675396
0.5826001763 0.0000000000 0.3049853444
0.9912023544 0.0000000000 0.3079178929
0.0000000000 0.1583577693 0.2795698941
0.1436950117 0.1583577693 0.2913000882
0.3421309888 0.1515151560 0.3079178929
0.6089931726 0.1065493673 0.3186705709
1.0000000000 0.0000000000 0.3128054738
0.0000000000 0.3352883756 0.3167155385
0.0000000000 0.3362658918 0.3206256032
0.3333333433 0.3352883756 0.3264907002
0.6275659800 0.3186705709 0.3313783109
1.0000000000 0.2346041054 0.3216031194
0.0000000000 0.5972629786 0.3284457624
0.0000000000 0.5982404947 0.3294232786
0.2267839760 0.5972629786 0.3304007947
0.5933528543 0.5865102410 0.3304007947
1.0000000000 0.5210165977 0.3216031194
0.0000000000 1.0000000000 0.2903225720
0.0000000000 1.0000000000 0.2903225720
0.0000000000 1.0000000000 0.2893450558
0.3186705709 1.0000000000 0.2864125073
1.0000000000 1.0000000000 0.2795698941
0.0000000000 0.0547409579 0.4389051795
0.1104594320 0.0000000000 0.4701857269
0.3274682164 0.0000000000 0.5073313713
0.6031280756 0.0000000000 0.5278592110
1.0000000000 0.0000000000 0.5092864037
0.0000000000 0.1661779135 0.4809384048
0.0811339170 0.1632453501 0.5004887581
0.3294232786 0.1505376399 0.5268816948
0.6138807535 0.0918866098 0.5425220132
1.0000000000 0.0000000000 0.5200390816
0.0000000000 0.3352883756 0.5347018838
0.0000000000 0.3352883756 0.5415444970
0.3118279576 0.3333333433 0.5532746911
0.6197458506 0.3157380223 0.5620723367
1.0000000000 0.2209188640 0.5386119485
0.0000000000 0.5953079462 0.5630498528
0.0000000000 0.5962854624 0.5650048852
0.1867057681 0.5943304300 0.5679374337
0.5806451440 0.5835776925 0.5679374337
1.0000000000 0.5219941139 0.5532746911
0.0000000000 1.0000000000 0.5337243676
0.0000000000 1.0000000000 0.5337243676
0.0000000000 1.0000000000 0.5337243676
0.2952101529 1.0000000000 0.5327468514
1.0000000000 1.0000000000 0.5210165977
0.0000000000 0.1300097704 0.8719452620
0.0000000000 0.1026392952 0.9022482634
0.2404692024 0.0000000000 0.9521016479
0.5835776925 0.0000000000 0.9912023544
1.0000000000 0.0000000000 0.9569892287
0.0000000000 0.2023460418 0.8983381987
0.0000000000 0.1915933490 0.9227761626
0.2287390083 0.1632453501 0.9648093581
0.5816226602 0.0703812316 0.9990224838
1.0000000000 0.0000000000 0.9667643905
0.0000000000 0.3401759565 0.9481915832
0.0000000000 0.3382209241 0.9628543258
0.1808406711 0.3323558271 0.9892473221
0.5718474984 0.3079178929 1.0000000000
1.0000000000 0.1945258975 0.9863147736
0.0000000000 0.5816226602 0.9980449677
0.0000000000 0.5826001763 1.0000000000
0.0000000000 0.5816226602 1.0000000000
0.5229716301 0.5718474984 1.0000000000
1.0000000000 0.5112414360 1.0000000000
0.0000000000 1.0000000000 0.9863147736
0.0000000000 1.0000000000 0.9863147736
0.0000000000 1.0000000000 0.9872922897
0.1612903178 1.0000000000 0.9872922897
0.9921798706 0.9970674515 0.9706745148
