odm/etc/camera/filters_lut/dolby_preview_3dlut.cube
#Created by : Dolby Laboratories
#Copyright: (C) Copyright 2022 Dolby Laboratories
#is_rgb_input 1
#is_rgb_output 1
#input_offset 0.000000
#shape_order 1.000000
#format 6
# MaxLuma:900.00 MinLuma:0.00010 Eotf=Gamma
#LUT Size
LUT_3D_SIZE 33
#data domain
DOMAIN_MIN 0 0 0
DOMAIN_MAX 1.0 1.0 1.0
#LUT data points
0.0009775171 0.0009775171 0.0009775171
0.0175953079 0.0000000000 0.0000000000
0.0351906158 0.0000000000 0.0009775171
0.0537634417 0.0000000000 0.0019550342
0.0742913038 0.0000000000 0.0029325513
0.0938416421 0.0000000000 0.0048875855
0.1133919880 0.0000000000 0.0058651026
0.1329423338 0.0000000000 0.0078201368
0.1524926722 0.0000000000 0.0087976540
0.1730205268 0.0000000000 0.0107526882
0.1925708652 0.0000000000 0.0117302053
0.2121212184 0.0000000000 0.0136852395
0.2326490730 0.0000000000 0.0156402737
0.2521994114 0.0000000000 0.0175953079
0.2717497647 0.0000000000 0.0195503421
0.2913000882 0.0000000000 0.0215053763
0.3108504415 0.0000000000 0.0234604105
0.3313783109 0.0000000000 0.0254154447
0.3548386991 0.0000000000 0.0273704790
0.3792766333 0.0000000000 0.0303030312
0.4076246321 0.0000000000 0.0332355835
0.4379276633 0.0000000000 0.0371456519
0.4711632431 0.0000000000 0.0410557203
0.5063538551 0.0000000000 0.0449657887
0.5434995294 0.0000000000 0.0498533733
0.5826001763 0.0000000000 0.0547409579
0.6246334314 0.0000000000 0.0606060624
0.6695992351 0.0000000000 0.0674486831
0.7155424953 0.0000000000 0.0733137801
0.7653958797 0.0000000000 0.0801564008
0.8162267804 0.0000000000 0.0879765376
0.8699902296 0.0000000000 0.0957966745
0.9266862273 0.0000000000 0.1036168113
0.0000000000 0.0166177917 0.0000000000
0.0166177917 0.0166177917 0.0000000000
0.0361681320 0.0156402737 0.0000000000
0.0547409579 0.0136852395 0.0000000000
0.0742913038 0.0087976540 0.0019550342
0.0938416421 0.0000000000 0.0039100684
0.1133919880 0.0000000000 0.0048875855
0.1339198500 0.0000000000 0.0068426197
0.1534701884 0.0000000000 0.0078201368
0.1730205268 0.0000000000 0.0097751711
0.1935483813 0.0000000000 0.0117302053
0.2130987346 0.0000000000 0.0136852395
0.2336265892 0.0000000000 0.0146627566
0.2531769276 0.0000000000 0.0166177917
0.2727272809 0.0000000000 0.0185728259
0.2922776043 0.0000000000 0.0205278601
0.3118279576 0.0000000000 0.0224828944
0.3323558271 0.0000000000 0.0254154447
0.3558162153 0.0000000000 0.0273704790
0.3802541494 0.0000000000 0.0303030312
0.4086021483 0.0000000000 0.0332355835
0.4389051795 0.0000000000 0.0371456519
0.4721407592 0.0000000000 0.0410557203
0.5063538551 0.0000000000 0.0449657887
0.5444770455 0.0000000000 0.0498533733
0.5835776925 0.0000000000 0.0547409579
0.6256109476 0.0000000000 0.0606060624
0.6705767512 0.0000000000 0.0674486831
0.7165200114 0.0000000000 0.0733137801
0.7663733959 0.0000000000 0.0801564008
0.8172042966 0.0000000000 0.0879765376
0.8709677458 0.0000000000 0.0957966745
0.9276637435 0.0000000000 0.1036168113
0.0000000000 0.0342130996 0.0000000000
0.0097751711 0.0342130996 0.0000000000
0.0351906158 0.0342130996 0.0000000000
0.0557184741 0.0342130996 0.0000000000
0.0752688199 0.0332355835 0.0000000000
0.0957966745 0.0322580636 0.0000000000
0.1153470203 0.0293255132 0.0009775171
0.1358748823 0.0254154447 0.0039100684
0.1554252207 0.0195503421 0.0058651026
0.1759530753 0.0068426197 0.0078201368
0.1955034286 0.0000000000 0.0097751711
0.2160312831 0.0000000000 0.0117302053
0.2355816215 0.0000000000 0.0136852395
0.2551319599 0.0000000000 0.0156402737
0.2756598294 0.0000000000 0.0175953079
0.2952101529 0.0000000000 0.0195503421
0.3147605062 0.0000000000 0.0215053763
0.3352883756 0.0000000000 0.0244379286
0.3577712476 0.0000000000 0.0263929628
0.3831866980 0.0000000000 0.0293255132
0.4115346968 0.0000000000 0.0322580636
0.4418377280 0.0000000000 0.0361681320
0.4740957916 0.0000000000 0.0400782004
0.5092864037 0.0000000000 0.0449657887
0.5464320779 0.0000000000 0.0488758571
0.5865102410 0.0000000000 0.0547409579
0.6285434961 0.0000000000 0.0606060624
0.6725317836 0.0000000000 0.0664711669
0.7194526196 0.0000000000 0.0733137801
0.7683284283 0.0000000000 0.0801564008
0.8191593289 0.0000000000 0.0869990215
0.8729227781 0.0000000000 0.0948191583
0.9296187758 0.0000000000 0.1026392952
0.0000000000 0.0537634417 0.0000000000
0.0000000000 0.0537634417 0.0000000000
0.0312805474 0.0537634417 0.0000000000
0.0547409579 0.0537634417 0.0000000000
0.0762463361 0.0537634417 0.0000000000
0.0967741907 0.0527859256 0.0000000000
0.1173020527 0.0518084057 0.0000000000
0.1368523985 0.0508308895 0.0000000000
0.1573802531 0.0488758571 0.0000000000
0.1779081076 0.0459433049 0.0029325513
0.1984359771 0.0420332365 0.0068426197
0.2189638317 0.0381231681 0.0087976540
0.2385141701 0.0322580636 0.0117302053
0.2590420246 0.0244379286 0.0136852395
0.2785923779 0.0097751711 0.0156402737
0.2991202474 0.0000000000 0.0175953079
0.3186705709 0.0000000000 0.0205278601
0.3391984403 0.0000000000 0.0224828944
0.3626588583 0.0000000000 0.0254154447
0.3880742788 0.0000000000 0.0283479970
0.4154447615 0.0000000000 0.0312805474
0.4457477927 0.0000000000 0.0351906158
0.4789833724 0.0000000000 0.0391006842
0.5141739845 0.0000000000 0.0439882688
0.5513196588 0.0000000000 0.0488758571
0.5904203057 0.0000000000 0.0537634417
0.6324535608 0.0000000000 0.0596285425
0.6764418483 0.0000000000 0.0664711669
0.7233626842 0.0000000000 0.0723362640
0.7712609768 0.0000000000 0.0791788846
0.8230693936 0.0000000000 0.0869990215
0.8758553267 0.0000000000 0.0948191583
0.9325513244 0.0000000000 0.1026392952
0.0000000000 0.0733137801 0.0000000000
0.0000000000 0.0733137801 0.0000000000
0.0205278601 0.0733137801 0.0000000000
0.0508308895 0.0733137801 0.0000000000
0.0752688199 0.0733137801 0.0000000000
0.0967741907 0.0733137801 0.0000000000
0.1182795689 0.0733137801 0.0000000000
0.1388074309 0.0723362640 0.0000000000
0.1593352854 0.0713587478 0.0000000000
0.1808406711 0.0703812316 0.0000000000
0.2013685256 0.0684261993 0.0000000000
0.2218963802 0.0664711669 0.0000000000
0.2424242496 0.0625610948 0.0058651026
0.2629520893 0.0596285425 0.0097751711
0.2834799588 0.0557184741 0.0127077224
0.3030303121 0.0518084057 0.0146627566
0.3235581517 0.0469208211 0.0175953079
0.3440860212 0.0400782004 0.0205278601
0.3675464392 0.0312805474 0.0234604105
0.3929618895 0.0107526882 0.0263929628
0.4213098586 0.0000000000 0.0293255132
0.4516128898 0.0000000000 0.0332355835
0.4838709533 0.0000000000 0.0381231681
0.5190615654 0.0000000000 0.0420332365
0.5562072396 0.0000000000 0.0469208211
0.5962854624 0.0000000000 0.0527859256
0.6373411417 0.0000000000 0.0586510263
0.6813294291 0.0000000000 0.0645161271
0.7282502651 0.0000000000 0.0713587478
0.7761485577 0.0000000000 0.0791788846
0.8269794583 0.0000000000 0.0860215053
0.8807429075 0.0000000000 0.0938416421
0.9364613891 0.0000000000 0.1026392952
0.0000000000 0.0928641260 0.0000000000
0.0000000000 0.0928641260 0.0000000000
0.0000000000 0.0938416421 0.0000000000
0.0449657887 0.0938416421 0.0000000000
0.0723362640 0.0938416421 0.0000000000
0.0957966745 0.0938416421 0.0000000000
0.1173020527 0.0938416421 0.0000000000
0.1397849470 0.0938416421 0.0000000000
0.1612903178 0.0928641260 0.0000000000
0.1827957034 0.0918866098 0.0000000000
0.2033235580 0.0909090936 0.0000000000
0.2248289287 0.0899315774 0.0000000000
0.2453567982 0.0879765376 0.0000000000
0.2668621838 0.0860215053 0.0000000000
0.2873900235 0.0830889568 0.0048875855
0.3079178929 0.0811339170 0.0097751711
0.3274682164 0.0782013685 0.0136852395
0.3489736021 0.0742913038 0.0166177917
0.3724340200 0.0703812316 0.0195503421
0.3988269866 0.0645161271 0.0234604105
0.4271749854 0.0576735102 0.0273704790
0.4574780166 0.0478983372 0.0312805474
0.4907135963 0.0342130996 0.0361681320
0.5259041786 0.0000000000 0.0400782004
0.5630498528 0.0000000000 0.0459433049
0.6021505594 0.0000000000 0.0508308895
0.6441837549 0.0000000000 0.0566959940
0.6881720424 0.0000000000 0.0635386109
0.7341153622 0.0000000000 0.0703812316
0.7829912305 0.0000000000 0.0772238523
0.8338220716 0.0000000000 0.0850439891
0.8866080046 0.0000000000 0.0928641260
0.9413489699 0.0000000000 0.1016617790
0.0000000000 0.1133919880 0.0000000000
0.0000000000 0.1133919880 0.0000000000
0.0000000000 0.1133919880 0.0000000000
0.0322580636 0.1143695042 0.0000000000
0.0664711669 0.1143695042 0.0000000000
0.0928641260 0.1143695042 0.0000000000
0.1163245365 0.1143695042 0.0000000000
0.1397849470 0.1143695042 0.0000000000
0.1612903178 0.1143695042 0.0000000000
0.1837732196 0.1133919880 0.0000000000
0.2052785903 0.1133919880 0.0000000000
0.2267839760 0.1124144644 0.0000000000
0.2482893467 0.1114369482 0.0000000000
0.2697947323 0.1094819158 0.0000000000
0.2903225720 0.1075268835 0.0000000000
0.3118279576 0.1055718511 0.0000000000
0.3323558271 0.1036168113 0.0029325513
0.3538611829 0.1016617790 0.0097751711
0.3782991171 0.0987292305 0.0146627566
0.4046920836 0.0948191583 0.0195503421
0.4330400825 0.0899315774 0.0234604105
0.4643206298 0.0840664729 0.0283479970
0.4975562096 0.0772238523 0.0332355835
0.5327468514 0.0694037154 0.0381231681
0.5698924661 0.0576735102 0.0439882688
0.6089931726 0.0420332365 0.0488758571
0.6510263681 0.0146627566 0.0557184741
0.6950146556 0.0000000000 0.0615835786
0.7409579754 0.0000000000 0.0694037154
0.7898338437 0.0000000000 0.0762463361
0.8406646848 0.0000000000 0.0840664729
0.8934506178 0.0000000000 0.0918866098
0.9481915832 0.0000000000 0.1006842628
0.0000000000 0.1339198500 0.0000000000
0.0000000000 0.1339198500 0.0000000000
0.0000000000 0.1348973662 0.0000000000
0.0000000000 0.1348973662 0.0000000000
0.0576735102 0.1348973662 0.0000000000
0.0879765376 0.1348973662 0.0000000000
0.1143695042 0.1358748823 0.0000000000
0.1378299147 0.1358748823 0.0000000000
0.1612903178 0.1358748823 0.0000000000
0.1837732196 0.1358748823 0.0000000000
0.2062561065 0.1348973662 0.0000000000
0.2287390083 0.1339198500 0.0000000000
0.2502443790 0.1339198500 0.0000000000
0.2717497647 0.1329423338 0.0000000000
0.2932551205 0.1309872866 0.0000000000
0.3147605062 0.1300097704 0.0000000000
0.3362658918 0.1280547380 0.0000000000
0.3587487638 0.1260997057 0.0000000000
0.3831866980 0.1241446733 0.0039100684
0.4095796645 0.1212121248 0.0127077224
0.4389051795 0.1173020527 0.0185728259
0.4701857269 0.1124144644 0.0244379286
0.5034213066 0.1075268835 0.0293255132
0.5395894647 0.1016617790 0.0351906158
0.5767350793 0.0938416421 0.0410557203
0.6168133020 0.0850439891 0.0469208211
0.6588465571 0.0752688199 0.0527859256
0.7028347850 0.0645161271 0.0596285425
0.7487781048 0.0488758571 0.0674486831
0.7976539731 0.0273704790 0.0752688199
0.8475073576 0.0000000000 0.0830889568
0.9002932310 0.0000000000 0.0909090936
0.9550341964 0.0000000000 0.0997067466
0.0000000000 0.1554252207 0.0000000000
0.0000000000 0.1554252207 0.0000000000
0.0000000000 0.1554252207 0.0000000000
0.0000000000 0.1564027369 0.0000000000
0.0439882688 0.1564027369 0.0000000000
0.0821114406 0.1564027369 0.0000000000
0.1094819158 0.1564027369 0.0000000000
0.1358748823 0.1573802531 0.0000000000
0.1603128016 0.1573802531 0.0000000000
0.1837732196 0.1573802531 0.0000000000
0.2062561065 0.1573802531 0.0000000000
0.2287390083 0.1564027369 0.0000000000
0.2521994114 0.1564027369 0.0000000000
0.2737047970 0.1554252207 0.0000000000
0.2961876690 0.1544477046 0.0000000000
0.3176930547 0.1534701884 0.0000000000
0.3391984403 0.1524926722 0.0000000000
0.3626588583 0.1505376399 0.0000000000
0.3870967627 0.1485826075 0.0000000000
0.4144672453 0.1456500441 0.0000000000
0.4437927604 0.1427174956 0.0097751711
0.4760508239 0.1388074309 0.0185728259
0.5092864037 0.1339198500 0.0244379286
0.5454545617 0.1290322542 0.0312805474
0.5835776925 0.1221896410 0.0371456519
0.6246334314 0.1163245365 0.0439882688
0.6666666865 0.1075268835 0.0508308895
0.7106549144 0.0987292305 0.0576735102
0.7575757504 0.0889540538 0.0654936433
0.8054741025 0.0791788846 0.0733137801
0.8563050032 0.0694037154 0.0811339170
0.9090909362 0.0606060624 0.0889540538
0.9628543258 0.0508308895 0.0977517143
0.0000000000 0.1769305915 0.0000000000
0.0000000000 0.1769305915 0.0000000000
0.0000000000 0.1769305915 0.0000000000
0.0000000000 0.1769305915 0.0000000000
0.0000000000 0.1779081076 0.0000000000
0.0713587478 0.1779081076 0.0000000000
0.1045943275 0.1779081076 0.0000000000
0.1319648027 0.1788856238 0.0000000000
0.1573802531 0.1788856238 0.0000000000
0.1818181872 0.1788856238 0.0000000000
0.2062561065 0.1788856238 0.0000000000
0.2297165245 0.1788856238 0.0000000000
0.2521994114 0.1788856238 0.0000000000
0.2746823132 0.1779081076 0.0000000000
0.2981427312 0.1769305915 0.0000000000
0.3206256032 0.1759530753 0.0000000000
0.3421309888 0.1749755591 0.0000000000
0.3655914068 0.1739980429 0.0000000000
0.3910068572 0.1720430106 0.0000000000
0.4183773100 0.1700879782 0.0000000000
0.4486803412 0.1671554297 0.0000000000
0.4809384048 0.1642228812 0.0029325513
0.5151515007 0.1593352854 0.0175953079
0.5522971749 0.1544477046 0.0263929628
0.5904203057 0.1485826075 0.0332355835
0.6314760447 0.1427174956 0.0400782004
0.6744868159 0.1348973662 0.0478983372
0.7194526196 0.1270772219 0.0547409579
0.7653958797 0.1192570850 0.0625610948
0.8142717481 0.1104594320 0.0703812316
0.8651026487 0.1026392952 0.0791788846
0.9169110656 0.0938416421 0.0879765376
0.9716520309 0.0860215053 0.0967741907
0.0000000000 0.1984359771 0.0000000000
0.0000000000 0.1984359771 0.0000000000
0.0000000000 0.1984359771 0.0000000000
0.0000000000 0.1984359771 0.0000000000
0.0000000000 0.1994134933 0.0000000000
0.0557184741 0.1994134933 0.0000000000
0.0957966745 0.2003910094 0.0000000000
0.1270772219 0.2003910094 0.0000000000
0.1544477046 0.2003910094 0.0000000000
0.1798631549 0.2013685256 0.0000000000
0.2043010741 0.2013685256 0.0000000000
0.2287390083 0.2013685256 0.0000000000
0.2521994114 0.2013685256 0.0000000000
0.2756598294 0.2003910094 0.0000000000
0.2991202474 0.2003910094 0.0000000000
0.3216031194 0.1994134933 0.0000000000
0.3440860212 0.1984359771 0.0000000000
0.3675464392 0.1974584609 0.0000000000
0.3939394057 0.1964809448 0.0000000000
0.4222874045 0.1935483813 0.0000000000
0.4525904059 0.1915933490 0.0000000000
0.4848484993 0.1876832843 0.0000000000
0.5200390816 0.1837732196 0.0000000000
0.5571847558 0.1798631549 0.0185728259
0.5972629786 0.1739980429 0.0273704790
0.6383186579 0.1681329459 0.0361681320
0.6813294291 0.1612903178 0.0439882688
0.7272727489 0.1544477046 0.0518084057
0.7741935253 0.1456500441 0.0596285425
0.8230693936 0.1378299147 0.0684261993
0.8739002943 0.1290322542 0.0772238523
0.9257087111 0.1212121248 0.0860215053
0.9804496765 0.1133919880 0.0948191583
0.0000000000 0.2199413478 0.0000000000
0.0000000000 0.2199413478 0.0000000000
0.0000000000 0.2199413478 0.0000000000
0.0000000000 0.2209188640 0.0000000000
0.0000000000 0.2209188640 0.0000000000
0.0185728259 0.2218963802 0.0000000000
0.0850439891 0.2218963802 0.0000000000
0.1202346012 0.2218963802 0.0000000000
0.1495601237 0.2228738964 0.0000000000
0.1769305915 0.2228738964 0.0000000000
0.2023460418 0.2228738964 0.0000000000
0.2277614921 0.2228738964 0.0000000000
0.2512218952 0.2228738964 0.0000000000
0.2756598294 0.2228738964 0.0000000000
0.2991202474 0.2228738964 0.0000000000
0.3225806355 0.2218963802 0.0000000000
0.3450635374 0.2218963802 0.0000000000
0.3695014715 0.2209188640 0.0000000000
0.3958944380 0.2189638317 0.0000000000
0.4242424369 0.2170087993 0.0000000000
0.4555229843 0.2150537670 0.0000000000
0.4887585640 0.2121212184 0.0000000000
0.5239491463 0.2082111388 0.0000000000
0.5620723367 0.2033235580 0.0000000000
0.6021505594 0.1994134933 0.0185728259
0.6441837549 0.1925708652 0.0303030312
0.6881720424 0.1867057681 0.0391006842
0.7341153622 0.1788856238 0.0478983372
0.7820137143 0.1710654944 0.0566959940
0.8318670392 0.1632453501 0.0654936433
0.8826979399 0.1544477046 0.0742913038
0.9354838729 0.1466275603 0.0830889568
0.9902248383 0.1397849470 0.0928641260
0.0000000000 0.2424242496 0.0000000000
0.0000000000 0.2424242496 0.0000000000
0.0000000000 0.2424242496 0.0000000000
0.0000000000 0.2424242496 0.0000000000
0.0000000000 0.2434017658 0.0000000000
0.0000000000 0.2434017658 0.0000000000
0.0684261993 0.2443792820 0.0000000000
0.1104594320 0.2443792820 0.0000000000
0.1427174956 0.2453567982 0.0000000000
0.1720430106 0.2453567982 0.0000000000
0.1984359771 0.2453567982 0.0000000000
0.2248289287 0.2453567982 0.0000000000
0.2502443790 0.2453567982 0.0000000000
0.2746823132 0.2453567982 0.0000000000
0.2991202474 0.2453567982 0.0000000000
0.3225806355 0.2453567982 0.0000000000
0.3460410535 0.2443792820 0.0000000000
0.3704789877 0.2434017658 0.0000000000
0.3968719542 0.2424242496 0.0000000000
0.4252199531 0.2404692024 0.0000000000
0.4574780166 0.2385141701 0.0000000000
0.4907135963 0.2355816215 0.0000000000
0.5278592110 0.2316715568 0.0000000000
0.5659824014 0.2277614921 0.0000000000
0.6070381403 0.2228738964 0.0000000000
0.6500488520 0.2170087993 0.0215053763
0.6950146556 0.2101661712 0.0332355835
0.7419354916 0.2033235580 0.0430107526
0.7898338437 0.1955034286 0.0518084057
0.8396871686 0.1867057681 0.0615835786
0.8914955854 0.1779081076 0.0713587478
0.9442815185 0.1691104621 0.0811339170
0.9990224838 0.1622678339 0.0909090936
0.0000000000 0.2639296055 0.0000000000
0.0000000000 0.2639296055 0.0000000000
0.0000000000 0.2649071217 0.0000000000
0.0000000000 0.2649071217 0.0000000000
0.0000000000 0.2649071217 0.0000000000
0.0000000000 0.2658846676 0.0000000000
0.0391006842 0.2658846676 0.0000000000
0.0977517143 0.2668621838 0.0000000000
0.1348973662 0.2668621838 0.0000000000
0.1661779135 0.2678397000 0.0000000000
0.1945258975 0.2678397000 0.0000000000
0.2218963802 0.2678397000 0.0000000000
0.2473118305 0.2678397000 0.0000000000
0.2727272809 0.2678397000 0.0000000000
0.2971652150 0.2678397000 0.0000000000
0.3216031194 0.2678397000 0.0000000000
0.3450635374 0.2668621838 0.0000000000
0.3695014715 0.2658846676 0.0000000000
0.3968719542 0.2649071217 0.0000000000
0.4261974692 0.2639296055 0.0000000000
0.4584555328 0.2619745731 0.0000000000
0.4936461449 0.2590420246 0.0000000000
0.5298142433 0.2561094761 0.0000000000
0.5698924661 0.2512218952 0.0000000000
0.6109482050 0.2473118305 0.0000000000
0.6549364328 0.2414467186 0.0000000000
0.7008797526 0.2346041054 0.0254154447
0.7478005886 0.2267839760 0.0371456519
0.7976539731 0.2189638317 0.0478983372
0.8475073576 0.2101661712 0.0576735102
0.9002932310 0.2023460418 0.0684261993
0.9530791640 0.1925708652 0.0782013685
1.0000000000 0.1847507358 0.0879765376
0.0000000000 0.2864125073 0.0000000000
0.0000000000 0.2864125073 0.0000000000
0.0000000000 0.2873900235 0.0000000000
0.0000000000 0.2873900235 0.0000000000
0.0000000000 0.2873900235 0.0000000000
0.0000000000 0.2883675396 0.0000000000
0.0000000000 0.2883675396 0.0000000000
0.0801564008 0.2893450558 0.0000000000
0.1241446733 0.2893450558 0.0000000000
0.1593352854 0.2903225720 0.0000000000
0.1886608005 0.2903225720 0.0000000000
0.2170087993 0.2903225720 0.0000000000
0.2443792820 0.2903225720 0.0000000000
0.2707722485 0.2903225720 0.0000000000
0.2952101529 0.2903225720 0.0000000000
0.3196480870 0.2893450558 0.0000000000
0.3440860212 0.2893450558 0.0000000000
0.3695014715 0.2883675396 0.0000000000
0.3968719542 0.2873900235 0.0000000000
0.4261974692 0.2864125073 0.0000000000
0.4584555328 0.2844574749 0.0000000000
0.4936461449 0.2825024426 0.0000000000
0.5317693353 0.2785923779 0.0000000000
0.5718474984 0.2746823132 0.0000000000
0.6138807535 0.2707722485 0.0000000000
0.6588465571 0.2649071217 0.0000000000
0.7057673335 0.2580645084 0.0087976540
0.7536656857 0.2502443790 0.0293255132
0.8035190701 0.2424242496 0.0420332365
0.8553274870 0.2336265892 0.0527859256
0.9081134200 0.2248289287 0.0645161271
0.9618768096 0.2150537670 0.0752688199
1.0000000000 0.2062561065 0.0850439891
0.0000000000 0.3088954091 0.0000000000
0.0000000000 0.3088954091 0.0000000000
0.0000000000 0.3088954091 0.0000000000
0.0000000000 0.3098729253 0.0000000000
0.0000000000 0.3098729253 0.0000000000
0.0000000000 0.3098729253 0.0000000000
0.0000000000 0.3108504415 0.0000000000
0.0527859256 0.3108504415 0.0000000000
0.1104594320 0.3118279576 0.0000000000
0.1485826075 0.3118279576 0.0000000000
0.1827957034 0.3118279576 0.0000000000
0.2121212184 0.3128054738 0.0000000000
0.2394916862 0.3128054738 0.0000000000
0.2668621838 0.3128054738 0.0000000000
0.2922776043 0.3118279576 0.0000000000
0.3167155385 0.3118279576 0.0000000000
0.3421309888 0.3118279576 0.0000000000
0.3675464392 0.3108504415 0.0000000000
0.3958944380 0.3098729253 0.0000000000
0.4261974692 0.3088954091 0.0000000000
0.4584555328 0.3069403768 0.0000000000
0.4946236610 0.3049853444 0.0000000000
0.5327468514 0.3020527959 0.0000000000
0.5728250146 0.2981427312 0.0000000000
0.6168133020 0.2932551205 0.0000000000
0.6617791057 0.2883675396 0.0000000000
0.7096773982 0.2815249264 0.0000000000
0.7595307827 0.2737047970 0.0175953079
0.8103616834 0.2658846676 0.0351906158
0.8621701002 0.2570869923 0.0478983372
0.9159335494 0.2473118305 0.0596285425
0.9706745148 0.2375366539 0.0713587478
1.0000000000 0.2277614921 0.0821114406
0.0000000000 0.3304007947 0.0000000000
0.0000000000 0.3313783109 0.0000000000
0.0000000000 0.3313783109 0.0000000000
0.0000000000 0.3313783109 0.0000000000
0.0000000000 0.3313783109 0.0000000000
0.0000000000 0.3323558271 0.0000000000
0.0000000000 0.3323558271 0.0000000000
0.0000000000 0.3333333433 0.0000000000
0.0928641260 0.3333333433 0.0000000000
0.1378299147 0.3333333433 0.0000000000
0.1730205268 0.3343108594 0.0000000000
0.2052785903 0.3343108594 0.0000000000
0.2346041054 0.3343108594 0.0000000000
0.2619745731 0.3343108594 0.0000000000
0.2883675396 0.3343108594 0.0000000000
0.3147605062 0.3343108594 0.0000000000
0.3391984403 0.3333333433 0.0000000000
0.3655914068 0.3333333433 0.0000000000
0.3939394057 0.3323558271 0.0000000000
0.4242424369 0.3304007947 0.0000000000
0.4584555328 0.3294232786 0.0000000000
0.4946236610 0.3274682164 0.0000000000
0.5327468514 0.3245356679 0.0000000000
0.5738025308 0.3206256032 0.0000000000
0.6177908182 0.3167155385 0.0000000000
0.6647116542 0.3108504415 0.0000000000
0.7126099467 0.3049853444 0.0000000000
0.7634408474 0.2971652150 0.0000000000
0.8152492642 0.2883675396 0.0254154447
0.8690127134 0.2795698941 0.0410557203
0.9237536788 0.2697947323 0.0547409579
0.9794721603 0.2590420246 0.0674486831
1.0000000000 0.2492668629 0.0782013685
0.0000000000 0.3538611829 0.0000000000
0.0000000000 0.3538611829 0.0000000000
0.0000000000 0.3538611829 0.0000000000
0.0000000000 0.3548386991 0.0000000000
0.0000000000 0.3548386991 0.0000000000
0.0000000000 0.3548386991 0.0000000000
0.0000000000 0.3558162153 0.0000000000
0.0000000000 0.3558162153 0.0000000000
0.0625610948 0.3567937315 0.0000000000
0.1231671572 0.3567937315 0.0000000000
0.1632453501 0.3567937315 0.0000000000
0.1964809448 0.3567937315 0.0000000000
0.2277614921 0.3577712476 0.0000000000
0.2561094761 0.3577712476 0.0000000000
0.2834799588 0.3567937315 0.0000000000
0.3098729253 0.3567937315 0.0000000000
0.3352883756 0.3567937315 0.0000000000
0.3626588583 0.3558162153 0.0000000000
0.3910068572 0.3548386991 0.0000000000
0.4222874045 0.3538611829 0.0000000000
0.4565005004 0.3528836668 0.0000000000
0.4936461449 0.3499511182 0.0000000000
0.5327468514 0.3479960859 0.0000000000
0.5738025308 0.3450635374 0.0000000000
0.6187683344 0.3401759565 0.0000000000
0.6656891704 0.3352883756 0.0000000000
0.7155424953 0.3284457624 0.0000000000
0.7663733959 0.3216031194 0.0000000000
0.8201368451 0.3128054738 0.0000000000
0.8748778105 0.3040078282 0.0332355835
0.9305962920 0.2932551205 0.0478983372
0.9872922897 0.2825024426 0.0615835786
1.0000000000 0.2717497647 0.0742913038
0.0000000000 0.3792766333 0.0000000000
0.0000000000 0.3792766333 0.0000000000
0.0000000000 0.3792766333 0.0000000000
0.0000000000 0.3802541494 0.0000000000
0.0000000000 0.3802541494 0.0000000000
0.0000000000 0.3802541494 0.0000000000
0.0000000000 0.3812316656 0.0000000000
0.0000000000 0.3812316656 0.0000000000
0.0000000000 0.3822091818 0.0000000000
0.0987292305 0.3822091818 0.0000000000
0.1476050764 0.3822091818 0.0000000000
0.1857282519 0.3822091818 0.0000000000
0.2179863155 0.3822091818 0.0000000000
